X:1
T:Lord Jesus, Come!
T:Philip Paul Bliss, 1873
T:Lord Jesus, Come!
T:Public Domain
C:Philip Paul Bliss, 1873
Z:Public Domain
%%score ( 1 2 ) ( 3 4 )
L:1/8
M:6/8
K:Eb
V:1 treble 
V:2 treble 
V:3 bass 
V:4 bass 
V:1
 E3 (EF)[EG] | [DF]3- [DF]2 [DF] | [DF]2 [DF] ([DF][EG])[FA] | [EG]3- [EG]2 [EB] | %4
w: 1.~Lord Je- * sus,|let * us|long- er roam * A-|far * from|
w: 2.~Lord Je- * sus,|ab- * sence|here we mourn: * No|joy * we|
w: 3.~Lord Je- * sus,|take * Thy|peo- ple home: * That|all * Thy|
 [Ec]2 [Ec] [EB]2 [EB] | [DA]2 [DA] [EG]2 [EB] | [Ec]2 [Ec] [EB]2 [EB] | [DA]2 [DA] [EG]3 | %8
w: Thee, and that bright|place Where we shall|see Thee face to|face. Lord Je-|
w: know a- part from|Thee, No sor- row|in Thy pre- sence|see. Lord Je-|
w: flock, so scat- tered|here, With Thee in|glo- ry may ap-|pear. Lord Je-|
 [GB]3 ([GB][FA])[EG] | [FA]3- [FA]2 z | [FA]3 ([FA][EG])[DF] | [EG]6 |] %12
w: sus, come! * Lord|Je- *|sus, come! * *||
w: sus, come! * Lord|Je- *|sus, come! * *||
w: sus, come! * Lord|Je- *|sus, come! * *||
V:2
 E3 E2 x | x6 | x6 | x6 | x6 | x6 | x6 | x6 | x6 | x6 | x6 | x6 |] %12
w: come! Nor||||||||||||
w: come! Thine||||||||||||
w: come! And||||||||||||
V:3
 [E,G,]3 G,A,[E,B,] | [B,,B,]3- [B,,B,]2 [B,,B,] | [B,,B,]2 [B,,B,] [B,,B,]2 [B,,B,] | %3
 [E,B,]3- [E,B,]2 [E,G,] | A,2 A, [G,B,]2 [G,B,] | [F,B,]2 [F,B,] [E,B,]2 [E,G,] | %6
 A,2 A, [G,B,]2 [G,B,] | [F,B,]2 [F,B,] [E,B,]3 | [E,E]3 [E,B,]2 [E,B,] | [B,,B,]3- [B,,B,]2 z | %10
 [B,,B,]3 [B,,B,]2 [B,,B,] | [E,B,]6 |] %12
V:4
 x3 E,2 x | x6 | x6 | x6 | A,2 A, x3 | x6 | A,2 A, x3 | x6 | x6 | x6 | x6 | x6 |] %12

